!!!COM: Palestrina, Giovanni Perluigi da
!!!OPR: Missa De beata virgine (1570)
!!!OMD: Sanctus
!!!OTL: Hosanna
**kern	**kern	**kern	**kern	**kern	**kern
*Ibass	*Itenor	*Itenor	*Icalto	*Icant	*Icant
!Bassus	!Tenor 2	!Tenor 1	!Altus	!Cantus 2	!Cantus 1
*clefF4	*clefGv2	*clefGv2	*clefG2	*clefG2	*clefG2
*k[b-]	*k[b-]	*k[b-]	*k[b-]	*k[b-]	*k[b-]
*?:X	*?:X	*?:X	*?:X	*?:X	*?:X
*M4/2	*M4/2	*M4/2	*M4/2	*M4/2	*M4/2
=48	=48	=48	=48	=48	=48
0c	0r	0r	0e	0g	0r
=49	=49	=49	=49	=49	=49
0A	0c	0r	1.e	1a	0r
.	.	.	.	[1cc	.
.	.	.	2f	.	.
=50	=50	=50	=50	=50	=50
0G	0d	0r	1g	2cc]	0r
.	.	.	.	4b-	.
.	.	.	.	4a	.
.	.	.	[1g	1b	.
=51	=51	=51	=51	=51	=51
0C	0e	0c	1g]	[0cc	0g
.	.	.	1e	.	.
=52	=52	=52	=52	=52	=52
0F	[0f	0A	2c	0cc]	1a
.	.	.	2.cc	.	.
.	.	.	.	.	[1cc
.	.	.	4b-	.	.
.	.	.	4a	.	.
.	.	.	4g	.	.
=53	=53	=53	=53	=53	=53
0D	0f]	0F	4a	0dd	2cc]
.	.	.	4g	.	.
.	.	.	4f	.	4b-
.	.	.	4e	.	4a
.	.	.	1d	.	1b
=54	=54	=54	=54	=54	=54
0C	0e	1G	1.g	2ee	1cc
.	.	.	.	4gg	.
.	.	.	.	4ff	.
.	.	1g	.	4ee	1cc
.	.	.	.	4dd	.
.	.	.	2e	[2cc	.
=55	=55	=55	=55	=55	=55
0r	0d	1a	1f	2cc]	1dd
.	.	.	.	4b-	.
.	.	.	.	4a	.
.	.	1f	1d	1b	[1ff
=56	=56	=56	=56	=56	=56
0C	0c	2.g	2r	1cc	2ff]
.	.	.	1g	.	4ee
.	.	4f	.	.	4dd
.	.	4e	.	1r	2ee
.	.	4d	.	.	.
.	.	2e	2g	.	[2cc
=57	=57	=57	=57	=57	=57
0G	0d	2d	1g	2r	2cc]
.	.	1G	.	2.gg	4b-
.	.	.	.	.	4a
.	.	.	1g	.	1b
.	.	.	.	4ff	.
.	.	[2g	.	2dd	.
=58	=58	=58	=58	=58	=58
1C	0c	4g]	2r	2ee	1cc
.	.	4f	.	.	.
.	.	4e	2.cc	4cc	.
.	.	4d	.	4dd	.
1C	.	2c	.	4ee	1r
.	.	.	4b-	4ff	.
.	.	2e	2g	2gg	.
=59	=59	=59	=59	=59	=59
1F	0A	0f	2a	2.ff	2r
.	.	.	4f	.	2.ff
.	.	.	4g	8ee	.
.	.	.	.	8dd	.
1F	.	.	4a	2cc	.
.	.	.	4b-	.	4ee
.	.	.	2cc	2a	2cc
=60	=60	=60	=60	=60	=60
1BB-	0B-	1d	1.dd	2.ff	2dd
.	.	.	.	.	4b-
.	.	.	.	4ee	4cc
1r	.	1r	.	1dd	4dd
.	.	.	.	.	4ee
.	.	.	2a	.	[2ff
=61	=61	=61	=61	=61	=61
2r	0c	1r	1g	0cc	2ff]
2C	.	.	.	.	4ee
.	.	.	.	.	4dd
4C	.	2r	[1g	.	1ee
4D	.	.	.	.	.
4E	.	2G	.	.	.
4F	.	.	.	.	.
=62	=62	=62	=62	=62	=62
4G	0B-	4G	1g]	0r	1.dd
4F	.	4A	.	.	.
4G	.	4B-	.	.	.
4A	.	4c	.	.	.
2B-	.	4d	2r	.	.
.	.	4c	.	.	.
2BB-	.	4d	2d	.	2dd
.	.	4e	.	.	.
=63	=63	=63	=63	=63	=63
2.D	0A	0f	4d	2r	1dd
.	.	.	4e	.	.
.	.	.	4f	2a	.
4E	.	.	4g	.	.
1F	.	.	4a	4a	1cc
.	.	.	4g	4b-	.
.	.	.	4a	4cc	.
.	.	.	4b-	4dd	.
=64	=64	=64	=64	=64	=64
1C	0G	1e	1cc	4ee	2r
.	.	.	.	4dd	.
.	.	.	.	4ee	2g
.	.	.	.	4ff	.
2r	.	2r	1b-	1gg	4g
.	.	.	.	.	4a
2G	.	2d	.	.	4b-
.	.	.	.	.	4cc
=65	=65	=65	=65	=65	=65
2D	0A	4d	2.a	2.ff	4dd
.	.	4e	.	.	4cc
2D	.	4f	.	.	4dd
.	.	4g	4g	4ee	4ee
2D	.	2a	2f	2dd	1ff
2F	.	2f	4c	[2cc	.
.	.	.	4d	.	.
=66	=66	=66	=66	=66	=66
1C	0G	2g	4e	2cc]	1ee
.	.	.	4f	.	.
.	.	2e	4g	2g	.
.	.	.	4a	.	.
1G	.	1g	1b-	4g	1dd
.	.	.	.	4a	.
.	.	.	.	4b-	.
.	.	.	.	4cc	.
=67	=67	=67	=67	=67	=67
1.D	0A	2f	1a	4dd	2.ff
.	.	.	.	4cc	.
.	.	4F	.	4dd	.
.	.	4G	.	4ee	4ee
.	.	4A	2a	2ff	2dd
.	.	4B-	.	.	.
2AA	.	2c	2a	2ee	2cc
=68	=68	=68	=68	=68	=68
4BB-	0F	1d	4d	1dd	2b-
4C	.	.	4e	.	.
4D	.	.	4f	.	2.a
4E	.	.	4g	.	.
1F	.	2.A	2a	1cc	.
.	.	.	.	.	4f
.	.	.	[2f	.	2a
.	.	4B-	.	.	.
=69	=69	=69	=69	=69	=69
0C	0G	1c	2f]	0cc	0g
.	.	.	4e	.	.
.	.	.	4d	.	.
.	.	1c	1e	.	.
=70	=70	=70	=70	=70	=70
0F	[0F	2r	[0f	1cc	2.a
.	.	2A	.	.	.
.	.	.	.	.	4b-
.	.	4A	.	2r	1cc
.	.	4G	.	.	.
.	.	4A	.	2ff	.
.	.	4B-	.	.	.
=71	=71	=71	=71	=71	=71
2r	1F]	4c	0f]	4ff	1r
.	.	4A	.	4ee	.
2BB-	.	4B-	.	4dd	.
.	.	4c	.	4cc	.
4BB-	1r	1d	.	2b-	2r
4C	.	.	.	.	.
4D	.	.	.	4a	2f
4E	.	.	.	4g	.
=72	=72	=72	=72	=72	=72
4F	0c	2A	0r	1a	4f
4E	.	.	.	.	4g
4F	.	1f	.	.	4a
4G	.	.	.	.	4b-
2.A	.	.	.	1a	4cc
.	.	.	.	.	4b
.	.	2e	.	.	4cc
4B	.	.	.	.	4dd
=73	=73	=73	=73	=73	=73
2.c	0A	1e	2r	2.a	1.ee
.	.	.	2.c	.	.
4B-	.	.	.	4b-	.
1A	.	1c	.	1cc	.
.	.	.	4d	.	.
.	.	.	4e	.	2a
.	.	.	4f	.	.
=74	=74	=74	=74	=74	=74
0G	0B-	0d	4g	1b-	2dd
.	.	.	4f	.	.
.	.	.	4g	.	2b-
.	.	.	4a	.	.
.	.	.	1b-	1g	2.dd
.	.	.	.	.	4ee
=75	=75	=75	=75	=75	=75
2F	0c	1r	2a	0cc	2ff
2C	.	.	4g	.	4ee
.	.	.	4f	.	4dd
4C	.	2r	[1g	.	1ee
4D	.	.	.	.	.
4E	.	2G	.	.	.
4F	.	.	.	.	.
=76	=76	=76	=76	=76	=76
4G	0B-	4G	1g]	0r	[0dd
4F	.	4A	.	.	.
4G	.	4B-	.	.	.
4A	.	4c	.	.	.
2B-	.	4d	2r	.	.
.	.	4c	.	.	.
2BB-	.	4d	2d	.	.
.	.	4e	.	.	.
=77	=77	=77	=77	=77	=77
2.D	0A	0f	4d	2r	1dd]
.	.	.	4e	.	.
.	.	.	4f	2a	.
4E	.	.	4g	.	.
1F	.	.	4a	4a	1cc
.	.	.	4g	4b-	.
.	.	.	4a	4cc	.
.	.	.	4b-	4dd	.
=78	=78	=78	=78	=78	=78
1C	0G	1e	1cc	4ee	2r
.	.	.	.	4dd	.
.	.	.	.	4ee	2g
.	.	.	.	4ff	.
2r	.	2r	1b-	1gg	4g
.	.	.	.	.	4a
2G	.	2d	.	.	4b-
.	.	.	.	.	4cc
=79	=79	=79	=79	=79	=79
2D	0A	4d	2.a	2.ff	4dd
.	.	4e	.	.	4cc
2D	.	4f	.	.	4dd
.	.	4g	4g	4ee	4ee
2D	.	2a	2f	2dd	1ff
2F	.	2f	4c	[2cc	.
.	.	.	4d	.	.
=80	=80	=80	=80	=80	=80
1C	0G	2g	4e	2cc]	1ee
.	.	.	4f	.	.
.	.	2e	4g	2g	.
.	.	.	4a	.	.
1G	.	1g	1b-	4g	1dd
.	.	.	.	4a	.
.	.	.	.	4b-	.
.	.	.	.	4cc	.
=81	=81	=81	=81	=81	=81
1.D	0A	2f	1.a	4dd	2.ff
.	.	.	.	4cc	.
.	.	4F	.	4dd	.
.	.	4G	.	4ee	4ee
.	.	4A	.	2ff	2dd
.	.	4B-	.	.	.
2AA	.	2c	2a	2ee	2cc
=82	=82	=82	=82	=82	=82
4BB-	0F	1d	4d	1dd	2b-
4C	.	.	4e	.	.
4D	.	.	4f	.	2.a
4E	.	.	4g	.	.
1F	.	2.A	2a	1cc	.
.	.	.	.	.	4f
.	.	.	[2f	.	2a
.	.	4B-	.	.	.
=83	=83	=83	=83	=83	=83
0C	0G	0c	2f]	0cc	0g
.	.	.	4e	.	.
.	.	.	4d	.	.
.	.	.	1e	.	.
=84	=84	=84	=84	=84	=84
0F	0F	0c	0f	0cc	0a
==	==	==	==	==	==
*-	*-	*-	*-	*-	*-
!!!CDT: 1525/^1526/-1594/2/2
!!!OCY: Italia
!!!AGN: Mass (Paraphrase)
!!!AST: renaissance, vocal
!!!ASW: Gregorian Mass
!!!PWK: Masses, Book 3
!!!RNB: Cadence finals: G,D,C,E,F
!!!YOR: Le Opere Complete, v. 6, p. 175
!!!YOO: Rome, Italy: Fratelli Scalera
!!!END: 1992//
!!!EED: John Miller
!!!YEC: Copyright 2000, John Miller
!!!YEN: United States of America
!!!YEM: Rights to all derivative electronic formats reserved.
!!!YEM: Refer to licensing agreement for further details.
!!!YEM: This file must be accompanied by the licensing agreement.
!!!YEM: A copy of the licensing agreement may be found at http://www.music-cog.ohio-state.edu/HumdrumDatabases/Palestrina/license.txt
!!!EMD: converted to Humdrum by Bret Aarden
